assets/Cl button/Flat/cl_button_flat.svg

<svg width="32" height="32" viewBox="0 0 32 32" fill="none" xmlns="http://www.w3.org/2000/svg">
<path d="M2 6C2 3.79086 3.79086 2 6 2H26C28.2091 2 30 3.79086 30 6V26C30 28.2091 28.2091 30 26 30H6C3.79086 30 2 28.2091 2 26V6Z" fill="#F92F60"/>
<path d="M11.3301 9.35938C8.42087 9.35938 6.0625 11.7177 6.0625 14.6269V17.3862C6.0625 20.3054 8.42898 22.6719 11.3482 22.6719C13.1717 22.6719 14.8664 21.7319 15.832 20.1851L15.8539 20.15C16.256 19.5058 16.0598 18.6576 15.4156 18.2555C14.7714 17.8534 13.9232 18.0496 13.5211 18.6938L13.4992 18.7289C13.036 19.471 12.223 19.9219 11.3482 19.9219C9.94776 19.9219 8.8125 18.7866 8.8125 17.3862V14.6269C8.8125 13.2365 9.93965 12.1094 11.3301 12.1094C12.2085 12.1094 13.0234 12.5672 13.4803 13.3175L13.5131 13.3714C13.9081 14.02 14.7541 14.2256 15.4027 13.8306C16.0513 13.4356 16.2569 12.5897 15.8619 11.9411L15.829 11.8871C14.8731 10.3174 13.168 9.35938 11.3301 9.35938Z" fill="white"/>
<path d="M20.75 10.7344C20.75 9.97498 20.1344 9.35938 19.375 9.35938C18.6156 9.35938 18 9.97498 18 10.7344V21.2656C18 22.025 18.6156 22.6406 19.375 22.6406H24.6562C25.4156 22.6406 26.0312 22.025 26.0312 21.2656C26.0312 20.5062 25.4156 19.8906 24.6562 19.8906H21C20.8619 19.8906 20.75 19.7787 20.75 19.6406V10.7344Z" fill="white"/>
</svg>

<svg xmlns="http://www.w3.org/2000/svg" width="32" height="32" fill="none"><path fill="#F92F60" d="M2 6a4 4 0 0 1 4-4h20a4 4 0 0 1 4 4v20a4 4 0 0 1-4 4H6a4 4 0 0 1-4-4V6Z"/><path fill="#fff" d="M11.33 9.36a5.268 5.268 0 0 0-5.268 5.267v2.76a5.286 5.286 0 0 0 9.77 2.798l.022-.035a1.375 1.375 0 1 0-2.333-1.456l-.022.035a2.536 2.536 0 0 1-4.687-1.343v-2.76a2.518 2.518 0 0 1 4.668-1.308l.033.053a1.375 1.375 0 0 0 2.349-1.43l-.033-.054A5.268 5.268 0 0 0 11.33 9.36ZM20.75 10.734a1.375 1.375 0 1 0-2.75 0v10.532c0 .759.616 1.375 1.375 1.375h5.281a1.375 1.375 0 1 0 0-2.75H21a.25.25 0 0 1-.25-.25v-8.907Z"/></svg>
